SVG_Azure_All/Azure Monitor Data Collection Rules.svg

<?xml version="1.0" encoding="UTF-8" standalone="no"?>
<!-- Generated by Microsoft Visio, SVG Export Azure Monitor Data Collection Rules.svg Page-1 -->

<svg
   xmlns:dc="http://purl.org/dc/elements/1.1/"
   xmlns:cc="http://creativecommons.org/ns#"
   xmlns:rdf="http://www.w3.org/1999/02/22-rdf-syntax-ns#"
   xmlns:svg="http://www.w3.org/2000/svg"
   xmlns="http://www.w3.org/2000/svg"
   xmlns:sodipodi="http://sodipodi.sourceforge.net/DTD/sodipodi-0.dtd"
   xmlns:inkscape="http://www.inkscape.org/namespaces/inkscape"
   width="0.78738123in"
   height="0.78736329in"
   viewBox="0 0 56.691264 56.690026"
   xml:space="preserve"
   class="st6"
   version="1.1"
   id="svg50"
   sodipodi:docname="Azure Monitor Data Collection Rules.svg"
   style="font-size:12px;overflow:visible;color-interpolation-filters:sRGB;fill:none;fill-rule:evenodd;stroke-linecap:square;stroke-miterlimit:3"
   inkscape:version="0.92.5 (2060ec1f9f, 2020-04-08)"><metadata
   id="metadata54"><rdf:RDF><cc:Work
       rdf:about=""><dc:format>image/svg+xml</dc:format><dc:type
         rdf:resource="http://purl.org/dc/dcmitype/StillImage" /></cc:Work></rdf:RDF></metadata><sodipodi:namedview
   pagecolor="#ffffff"
   bordercolor="#666666"
   borderopacity="1"
   objecttolerance="10"
   gridtolerance="10"
   guidetolerance="10"
   inkscape:pageopacity="0"
   inkscape:pageshadow="2"
   inkscape:window-width="640"
   inkscape:window-height="480"
   id="namedview52"
   showgrid="false"
   inkscape:zoom="1.4338569"
   inkscape:cx="37.795211"
   inkscape:cy="36.937209"
   inkscape:window-x="0"
   inkscape:window-y="0"
   inkscape:window-maximized="0"
   inkscape:current-layer="svg50" />
	<style
   type="text/css"
   id="style2">
	<![CDATA[
		.st1 {fill:url(#grad0-6);stroke:none;stroke-linecap:butt;stroke-width:32.7347}
		.st2 {fill:url(#grad0-10);stroke:none;stroke-linecap:butt;stroke-width:32.7347}
		.st3 {fill:#ffffff;stroke:none;stroke-linecap:butt;stroke-width:32.7347}
		.st4 {fill:#ffffff;fill-opacity:0.8;stroke:none;stroke-linecap:butt;stroke-width:32.7347}
		.st5 {fill:#83b9f9;stroke:none;stroke-linecap:butt;stroke-width:32.7347}
		.st6 {fill:none;fill-rule:evenodd;font-size:12px;overflow:visible;stroke-linecap:square;stroke-miterlimit:3}
	]]>
	</style>

	<defs
   id="Patterns_And_Gradients">
		<linearGradient
   id="grad0-6"
   x1="-1.0680753e-08"
   y1="60.958851"
   x2="51.771645"
   y2="60.958851"
   gradientTransform="scale(0.91324122,1.0950009)"
   gradientUnits="userSpaceOnUse">
			<stop
   offset="0"
   stop-color="#0078d4"
   stop-opacity="1"
   id="stop4" />
			<stop
   offset="1"
   stop-color="#5ea0ef"
   stop-opacity="1"
   id="stop6" />
		</linearGradient>
		<linearGradient
   id="grad0-10"
   x1="0"
   y1="140.63824"
   x2="32.136285"
   y2="140.63824"
   gradientTransform="scale(1.399664,0.7144572)"
   gradientUnits="userSpaceOnUse">
			<stop
   offset="0"
   stop-color="#50e6ff"
   stop-opacity="1"
   id="stop9" />
			<stop
   offset="1"
   stop-color="#32bedd"
   stop-opacity="1"
   id="stop11" />
		</linearGradient>
	</defs>
	<g
   id="g48"
   transform="translate(-32.7347,-32.7343)">
		<title
   id="title15">Page-1</title>
		<g
   id="group7771-1"
   transform="translate(32.7347,-34.0157)">
			<title
   id="title17">Azure Monitor Data Collection Rules</title>
			<g
   id="group7772-2">
				<title
   id="title19">g12</title>
				<g
   id="shape7773-3"
   transform="translate(9.41129)">
					<title
   id="title21">rect2</title>
					<path
   d="m 0,121.55 a 1.92991,1.88981 -180 0 0 1.93,1.89 h 43.42 a 1.92991,1.88981 -180 0 0 1.93,-1.89 V 68.64 A 1.92991,1.88981 -180 0 0 45.35,66.75 H 1.93 A 1.92991,1.88981 -180 0 0 0,68.64 Z"
   class="st1"
   id="path23"
   inkscape:connector-curvature="0"
   style="fill:url(#grad0-6);stroke:none;stroke-width:32.73469925;stroke-linecap:butt" />
				</g>
				<g
   id="shape7774-7"
   transform="translate(0,-27.8488)">
					<title
   id="title26">rect4</title>
					<path
   d="m 0,121.74 a 1.74013,1.70398 -180 0 0 1.74,1.7 h 41.5 a 1.74013,1.70398 -180 0 0 1.74,-1.7 v -19.56 a 1.74013,1.70398 -180 0 0 -1.74,-1.7 H 1.74 A 1.74013,1.70398 -180 0 0 0,102.18 Z"
   class="st2"
   id="path28"
   inkscape:connector-curvature="0"
   style="fill:url(#grad0-10);stroke:none;stroke-width:32.73469925;stroke-linecap:butt" />
				</g>
				<g
   id="shape7775-11"
   transform="translate(6.90891,-41.1811)">
					<title
   id="title31">path6</title>
					<path
   d="M 30.72,121.86 H 8.79 A 0.392405,0.384252 0 0 1 8.391162,121.48205 L 8.39,120.22 a 0.395622,0.387402 0 0 1 0.395622,-0.3874 L 30.72,119.83 a 0.398838,0.390551 0 0 1 0.398838,0.3874 L 31.12,121.47 a 0.392405,0.384252 0 0 1 -0.392405,0.3874 z m -25.41,0.92 v -3.86 A 0.681885,0.667717 -180 0 0 4.628115,118.25228 L 0.68,118.25 a 0.681885,0.667717 -180 0 0 -0.681885,0.66457 L 0,122.78 a 0.678668,0.664567 -180 0 0 0.678668,0.66457 L 4.63,123.44 a 0.678668,0.664567 -180 0 0 0.681885,-0.66457 z"
   class="st3"
   id="path33"
   inkscape:connector-curvature="0"
   style="fill:#ffffff;stroke:none;stroke-width:32.73469925;stroke-linecap:butt" />
				</g>
				<g
   id="shape7776-13"
   transform="translate(6.91534,-32.9669)">
					<title
   id="title36">path8</title>
					<path
   d="M 30.71,121.84 H 8.79 A 0.398838,0.390551 0 0 1 8.391162,121.4526 L 8.39,120.17 a 0.398838,0.390551 0 0 1 0.398838,-0.39055 L 30.71,119.78 a 0.402055,0.393701 0 0 1 0.398838,0.39055 L 31.11,121.43 a 0.402055,0.393701 0 0 1 -0.395622,0.3937 z M 4.32,119.23 H 1.03 v 3.21 h 3.29 z m 0.34,-1.01 a 0.69475,0.680315 0 0 1 0.685101,0.67402 L 5.35,122.77 a 0.688317,0.674016 0 0 1 -0.688317,0.67087 L 0.69,123.44 A 0.685101,0.670866 0 0 1 0.004899,122.76913 L 0,118.88 a 0.685101,0.670866 0 0 1 0.685101,-0.67087 z"
   class="st4"
   id="path38"
   inkscape:connector-curvature="0"
   style="fill:#ffffff;fill-opacity:0.8;stroke:none;stroke-width:32.73469925;stroke-linecap:butt" />
				</g>
				<g
   id="shape7777-15"
   transform="translate(9.41129,-6.47262)">
					<title
   id="title41">path10</title>
					<path
   d="m 33.03,108.21 a 0.389189,0.381102 -180 0 0 -0.270181,-0.11024 0.37954,0.371654 -180 0 0 -0.376323,0.37481 L 32.38,113.16 H 0 v 5.58 h 32.38 v 4.36 a 0.37954,0.371654 -180 0 0 0.643287,0.26457 L 40.5,116.06 a 0.376323,0.368504 -180 0 0 0,-0.52283 z"
   class="st5"
   id="path43"
   inkscape:connector-curvature="0"
   style="fill:#83b9f9;stroke:none;stroke-width:32.73469925;stroke-linecap:butt" />
				</g>
			</g>
		</g>
	</g>
</svg>

<?xml version="1.0" encoding="UTF-8" standalone="no"?>
<!DOCTYPE svg PUBLIC "-//W3C//DTD SVG 1.1//EN" "http://www.w3.org/Graphics/SVG/1.1/DTD/svg11.dtd">
<!-- Generated by Microsoft Visio, SVG Export Azure Monitor Data Collection Rules.svg Page-1 -->
<svg xmlns="http://www.w3.org/2000/svg" xmlns:xlink="http://www.w3.org/1999/xlink" xmlns:ev="http://www.w3.org/2001/xml-events"
		width="1.6967in" height="1.71449in" viewBox="0 0 122.162 123.443" xml:space="preserve" color-interpolation-filters="sRGB"
		class="st6">
	<style type="text/css">
	<![CDATA[
		.st1 {fill:url(#grad0-6);stroke:none;stroke-linecap:butt;stroke-width:32.7347}
		.st2 {fill:url(#grad0-10);stroke:none;stroke-linecap:butt;stroke-width:32.7347}
		.st3 {fill:#ffffff;stroke:none;stroke-linecap:butt;stroke-width:32.7347}
		.st4 {fill:#ffffff;fill-opacity:0.8;stroke:none;stroke-linecap:butt;stroke-width:32.7347}
		.st5 {fill:#83b9f9;stroke:none;stroke-linecap:butt;stroke-width:32.7347}
		.st6 {fill:none;fill-rule:evenodd;font-size:12px;overflow:visible;stroke-linecap:square;stroke-miterlimit:3}
	]]>
	</style>

	<defs id="Patterns_And_Gradients">
		<linearGradient id="grad0-6" x1="0" y1="0" x2="1" y2="0" gradientTransform="rotate(-90 0.5 0.5)">
			<stop offset="0" stop-color="#0078d4" stop-opacity="1"/>
			<stop offset="1" stop-color="#5ea0ef" stop-opacity="1"/>
		</linearGradient>
		<linearGradient id="grad0-10" x1="0" y1="0" x2="1" y2="0" gradientTransform="rotate(90 0.5 0.5)">
			<stop offset="0" stop-color="#50e6ff" stop-opacity="1"/>
			<stop offset="1" stop-color="#32bedd" stop-opacity="1"/>
		</linearGradient>
	</defs>
	<g>
		<title>Page-1</title>
		<g id="group7576-1" transform="translate(32.7347,-34.0157)">
			<title>Azure Monitor Data Collection Rules</title>
			<g id="group7577-2">
				<title>g12</title>
				<g id="shape7578-3" transform="translate(9.41129,1.42109E-14)">
					<title>rect2</title>
					<path d="M0 121.55 A1.92991 1.88981 -180 0 0 1.93 123.44 L45.35 123.44 A1.92991 1.88981 -180 0 0 47.28 121.55
								 L47.28 68.64 A1.92991 1.88981 -180 0 0 45.35 66.75 L1.93 66.75 A1.92991 1.88981 -180 0 0 0 68.64
								 L0 121.55 Z" class="st1"/>
				</g>
				<g id="shape7579-7" transform="translate(-2.8777E-13,-27.8488)">
					<title>rect4</title>
					<path d="M-0 121.74 A1.74013 1.70398 -180 0 0 1.74 123.44 L43.24 123.44 A1.74013 1.70398 -180 0 0 44.98 121.74
								 L44.98 102.18 A1.74013 1.70398 -180 0 0 43.24 100.48 L1.74 100.48 A1.74013 1.70398 -180 0 0 -0 102.18
								 L0 121.74 Z" class="st2"/>
				</g>
				<g id="shape7580-11" transform="translate(6.90891,-41.1811)">
					<title>path6</title>
					<path d="M30.72 121.86 L8.79 121.86 a0.392405 0.384252 0 0 1 -0.398838 -0.377953 L8.39 120.22 a0.395622 0.387402
								 0 0 1 0.395622 -0.387402 L30.72 119.83 a0.398838 0.390551 0 0 1 0.398838 0.387402 L31.12 121.47
								 a0.392405 0.384252 0 0 1 -0.392405 0.387402 L30.72 121.86 ZM5.31 122.78 L5.31 118.92 a0.681885 0.667717
								 -180 0 0 -0.681885 -0.667717 L0.68 118.25 a0.681885 0.667717 -180 0 0 -0.681885 0.664567 L0 122.78
								 a0.678668 0.664567 -180 0 0 0.678668 0.664567 L4.63 123.44 a0.678668 0.664567 -180 0 0 0.681885
								 -0.664567 L5.31 122.78 Z" class="st3"/>
				</g>
				<g id="shape7581-13" transform="translate(6.91534,-32.9669)">
					<title>path8</title>
					<path d="M30.71 121.84 L8.79 121.84 a0.398838 0.390551 0 0 1 -0.398838 -0.387402 L8.39 120.17 a0.398838 0.390551
								 0 0 1 0.398838 -0.390551 L30.71 119.78 a0.402055 0.393701 0 0 1 0.398838 0.390551 L31.11 121.43
								 a0.402055 0.393701 0 0 1 -0.395622 0.393701 L30.71 121.84 ZM4.32 119.23 L1.03 119.23 L1.03 122.44
								 L4.32 122.44 L4.32 119.23 ZM4.66 118.22 a0.69475 0.680315 0 0 1 0.685101 0.674016 L5.35 122.77 a0.688317
								 0.674016 0 0 1 -0.688317 0.670866 L0.69 123.44 a0.685101 0.670866 0 0 1 -0.685101 -0.670866 L0 118.88
								 a0.685101 0.670866 0 0 1 0.685101 -0.670866 L4.66 118.22 Z" class="st4"/>
				</g>
				<g id="shape7582-15" transform="translate(9.41129,-6.47262)">
					<title>path10</title>
					<path d="M33.03 108.21 a0.389189 0.381102 -180 0 0 -0.270181 -0.110236 a0.37954 0.371654 -180 0 0 -0.376323 0.374803
								 L32.38 113.16 L0 113.16 L0 118.74 L32.38 118.74 L32.38 123.1 a0.37954 0.371654 -180 0 0 0.643287
								 0.264567 L40.5 116.06 a0.376323 0.368504 -180 0 0 -1.63425E-13 -0.522835 L33.03 108.21 Z"
							class="st5"/>
				</g>
			</g>
		</g>
	</g>
</svg>
